X:18986
T:Xiraldilla (CT 126) (Arrg.)
R:Xiraldilla
C:Tradicional
S:MÃºsica Tradicional Asturiana, (C) Tello & Tito. Asturies, 2001.
S:http://pagina.de/MusTradAst <telloytito@asturies.org>
N:Xiraldilla, transcrita en UviÃ©u.
O:UviÃ©u
A:Asturies
G:Arrg.
Z:Cancioneru de Torner 126
M:2/4
L:1/8
Q:1/4=168
W:Â¿AdÃ³nde va la mi morena,
W:adÃ³nde va tan de maÃ±ana?
W:
W:Voy a la fuente serena
W:por una jarrita de agua.
K:G
|"G"dd de|"G"d2 BA|"G"G2 G2|"C"ee ee|"G"d2 "C"cB|"D"A2 A2|
"Am"AB cd|"C"e3 d|"G"g2 "D"f2|"G"de dB|"C"